src/assets/layout/Support.svg

<?xml version="1.0" encoding="UTF-8"?>
<svg width="24px" height="24px" viewBox="0 0 24 24" version="1.1" xmlns="http://www.w3.org/2000/svg" xmlns:xlink="http://www.w3.org/1999/xlink">
    <title>Foundations/Icons/Support@1x</title>
    <g id="💡-Icons" stroke="none" stroke-width="1" fill="none" fill-rule="evenodd">
        <g id="Foundations/Icons/Support" fill="#C09853">
            <path d="M19.7272727,9.79090909 C19.5203546,5.46049332 15.9715046,2.04322991 11.6363636,2 C7.30122269,2.04322991 3.75237271,5.46049332 3.54545455,9.79090909 C2.68398031,9.80583504 1.99489034,10.5111389 1.99989355,11.3727273 L1.99989355,15.0090909 C1.99514991,15.4262123 2.15621373,15.8281733 2.44775353,16.1265328 C2.73929333,16.4248922 3.13742338,16.5952057 3.55454545,16.6 C3.85923423,16.598802 4.15668641,16.5070348 4.40909091,16.3363636 C5.3527674,19.2405317 8.03765684,21.2240623 11.0909091,21.2727273 C11.3921553,21.2727273 11.6363636,21.028519 11.6363636,20.7272727 C11.6363636,20.4260265 11.3921553,20.1818182 11.0909091,20.1818182 C7.71534231,20.1270175 5.02211885,17.3483595 5.07272727,13.9727273 L5.07272727,11.3727273 C5.0925566,10.9282173 4.9242542,10.4959112 4.60909091,10.1818182 C4.61794789,9.7914428 4.65746342,9.40236673 4.72727273,9.01818182 C4.78751586,9.02756166 4.84884777,9.02756166 4.90909091,9.01818182 L18.3636364,9.01818182 C18.4238795,9.02756166 18.4852114,9.02756166 18.5454545,9.01818182 C18.615301,9.40236147 18.6548169,9.79144047 18.6636364,10.1818182 C18.3463837,10.4747272 18.1652511,10.8863921 18.1636364,11.3181818 L18.1636364,13.6727273 C17.2607239,13.9266449 16.6391009,14.752994 16.6454545,15.6909091 L16.6454545,16.0272727 C16.6527538,16.4251164 16.5016773,16.8095585 16.2254734,17.0959922 C15.9492695,17.3824259 15.5705734,17.5473777 15.1727273,17.5545455 L13.7,17.5545455 C13.7000982,16.4203764 12.7886163,15.4967415 11.6545455,15.4818182 L10.9727273,15.4818182 C10.0991132,15.4818182 9.39090909,16.1900223 9.39090909,17.0636364 C9.39090909,17.9372504 10.0991132,18.6454545 10.9727273,18.6454545 L15.1727273,18.6454545 C16.6015569,18.6255049 17.7464957,17.4562057 17.7363636,16.0272727 L17.7363636,15.6909091 C17.736874,15.3648312 17.8963347,15.0594808 18.1636364,14.8727273 L18.1636364,15.0181818 C18.1636364,15.8767336 18.8596301,16.5727273 19.7181818,16.5727273 C20.5767336,16.5727273 21.2727273,15.8767336 21.2727273,15.0181818 L21.2727273,11.3454545 C21.2727273,10.4904405 20.5822721,9.79590917 19.7272727,9.79090909 L19.7272727,9.79090909 Z M10.9727273,17.5818182 C10.8455872,17.5748643 10.7266283,17.5169152 10.6427808,17.4210895 C10.5589333,17.3252638 10.5172881,17.1996653 10.5272727,17.0727273 C10.5223619,16.9506182 10.5668276,16.8316754 10.6506379,16.7427339 C10.7344481,16.6537925 10.850542,16.6023454 10.9727273,16.6 L11.6545455,16.6 C12.186109,16.6147713 12.6092961,17.0500495 12.609091,17.5818182 L10.9727273,17.5818182 Z M4.01818182,15.0090909 C4.02309599,15.1369015 3.97698899,15.2614212 3.89002131,15.3552098 C3.80305364,15.4489985 3.68236289,15.5043587 3.55454545,15.5090909 C3.42672802,15.5043587 3.30603727,15.4489985 3.2190696,15.3552098 C3.13210192,15.2614212 3.08599492,15.1369015 3.09090909,15.0090909 L3.09090909,11.3727273 C3.0857668,11.1100534 3.29200653,10.891682 3.55454545,10.8818182 C3.81708438,10.891682 4.02332411,11.1100534 4.01818182,11.3727273 L4.01818182,15.0090909 Z M5,7.96363636 C5.93663664,5.08311568 8.60754861,3.12200772 11.6363636,3.09090909 C14.6651787,3.12200772 17.3360906,5.08311568 18.2727273,7.96363636 L5,7.96363636 Z M20.1818182,15.0454545 C20.1383003,15.2619639 19.9481123,15.4177284 19.7272727,15.4177284 C19.5064332,15.4177284 19.3162451,15.2619639 19.2727273,15.0454545 L19.2727273,11.3454545 C19.2357301,11.1613869 19.3133947,10.9731768 19.4694326,10.8687647 C19.6254704,10.7643527 19.829075,10.7643527 19.9851129,10.8687647 C20.1411507,10.9731768 20.2188153,11.1613869 20.1818182,11.3454545 L20.1818182,15.0454545 Z" id="Shape"></path>
        </g>
    </g>
</svg>

<svg width="24" height="24" viewBox="0 0 24 24" xmlns="http://www.w3.org/2000/svg"><path d="M19.727 9.79A8.182 8.182 0 0011.637 2a8.182 8.182 0 00-8.092 7.79c-.861.016-1.55.721-1.545 1.583v3.636A1.573 1.573 0 003.555 16.6c.304-.001.602-.093.854-.264a7.145 7.145 0 006.682 4.937.545.545 0 000-1.091 6.118 6.118 0 01-6.018-6.21v-2.6a1.582 1.582 0 00-.464-1.19c.009-.39.048-.78.118-1.164.06.01.122.01.182 0h13.455c.06.01.121.01.181 0 .07.384.11.773.119 1.164a1.555 1.555 0 00-.5 1.136v2.355a2.082 2.082 0 00-1.519 2.018v.336a1.5 1.5 0 01-1.472 1.528H13.7a2.073 2.073 0 00-2.045-2.073h-.682a1.582 1.582 0 100 3.163h4.2a2.6 2.6 0 002.563-2.618v-.336a1 1 0 01.428-.818v.145a1.555 1.555 0 103.109 0v-3.673c0-.855-.69-1.55-1.546-1.554zm-8.754 7.792a.473.473 0 01-.446-.51.455.455 0 01.446-.472h.682c.531.015.954.45.954.982h-1.636zm-6.955-2.573a.482.482 0 01-.463.5.482.482 0 01-.464-.5v-3.636a.482.482 0 01.464-.491c.262.01.468.228.463.49v3.637zM5 7.964a7.055 7.055 0 016.636-4.873 7.055 7.055 0 016.637 4.873H5zm15.182 7.081a.464.464 0 01-.91 0v-3.7a.464.464 0 11.91 0v3.7z" fill="#C09853" fill-rule="evenodd"/></svg>
